modules/web-icons/icons/list-bulleted.svg

<svg xmlns="http://www.w3.org/2000/svg" width="64" height="64" viewBox="0 0 64 64"><style>.st0{fill-rule:evenodd;clip-rule:evenodd}</style><path class="st0" d="M16,60v-8h48v8H16z M16,36h48v8H16V36z M16,20h48v8H16V20z M16,4h48v8H16V4z M4,60c-2.209,0-4-1.791-4-4 c0-2.209,1.791-4,4-4c2.209,0,4,1.791,4,4C8,58.209,6.209,60,4,60z M4,44c-2.209,0-4-1.791-4-4c0-2.209,1.791-4,4-4 c2.209,0,4,1.791,4,4C8,42.209,6.209,44,4,44z M4,28c-2.209,0-4-1.791-4-4c0-2.209,1.791-4,4-4c2.209,0,4,1.791,4,4 C8,26.209,6.209,28,4,28z M4,12c-2.209,0-4-1.791-4-4c0-2.21,1.791-4,4-4c2.209,0,4,1.791,4,4C8,10.209,6.209,12,4,12z" id="list-bulleted"/></svg>

<svg xmlns="http://www.w3.org/2000/svg" width="64" height="64"><path d="M16 60v-8h48v8H16zm0-24h48v8H16v-8zm0-16h48v8H16v-8zm0-16h48v8H16V4zM4 60a4 4 0 1 1 0-8 4 4 0 0 1 0 8zm0-16a4 4 0 1 1 0-8 4 4 0 0 1 0 8zm0-16a4 4 0 1 1 0-8 4 4 0 0 1 0 8zm0-16a4 4 0 1 1 0-8 4 4 0 0 1 0 8z" fill-rule="evenodd" clip-rule="evenodd"/></svg>
